X: 20935
T: Jovie's
R: jig
M: 6/8
K: Dmajor
|:D3 F3|AdF FED|D3 A3|FAD E3|
D3 F3|AdF ABd|D3 "D"DFA|DFA E2D:|
|:d3 f3|df/e/d dAF|D3 A3|FAD EFA|
d3 f3|df/e/d dAF|D3 "D"DFA|DFA E2D:|

